X:1253
T:Pollonoisse ur J.O Löfvéns notbok
R: Polska
N:Ur Dansmusik för Violin av J.O Löfvén
O:Sollentuna, Uppland
Z:Till abc av Jon Magnusson 090902
M:3/4
L:1/16
K:D
|:A2(AF) D2(DF) A2(Ad)|B2(BG) D2(DG) B2(Bd)|(cd)ef g2f2 e2d2|[1 (dc)df (ed)cB A4:|[2 (cd)ec d4 D4|]
|:A3a a6 f2|g2gf e2ed c2cB|A3a a6 f2|g2gf e2ed c2cB|A2AF D2DF A2Ad|B2BG D2DG B2Bd|(cd)ef g2f2 e2d2|cdec d4 D4:|
(:musicend:)

(:music:)
